svg/blobs-icons/no-decorations/chef-hat.svg

<svg xmlns="http://www.w3.org/2000/svg" preserveAspectRatio="xMidYMid" width="170" height="217"><defs><style>.cls-4{fill:#ccc}.cls-8{fill:#020403;opacity:.35}</style></defs><g id="group-99svg"><path d="M137.104 23.651a32.925 32.925.0 00-15.636 3.924C116.99 11.685 102.421.015 85.104.015c-17.325.0-31.894 11.67-36.381 27.56a32.91 32.91.0 00-15.617-3.924C14.82 23.651.002 38.471.002 56.743c0 18.281 14.172 33.091 33.08 33.091v127.061h103.999V89.834c18.909.0 33.1-14.81 33.1-33.091.0-18.272-14.81-33.092-33.077-33.092z" id="path-1" fill-rule="evenodd" style="fill:#fff"/><path d="M61.445 182.691a3.616 3.616.0 01-3.614-3.614v-37.819a3.616 3.616.0 013.614-3.616 3.616 3.616.0 013.615 3.616v37.819a3.615 3.615.0 01-3.615 3.614z" id="path-2" class="cls-4" fill-rule="evenodd"/><path d="M85.082 182.691a3.615 3.615.0 01-3.614-3.614v-47.274a3.614 3.614.0 117.228.0v47.274a3.615 3.615.0 01-3.614 3.614z" id="path-3" class="cls-4" fill-rule="evenodd"/><path d="M108.718 182.691a3.616 3.616.0 01-3.615-3.614v-37.819a3.616 3.616.0 117.229.0v37.819a3.615 3.615.0 01-3.614 3.614z" id="path-4" class="cls-4" fill-rule="evenodd"/><path d="M137.081 216.895H33.082v-41.892h103.999v41.892z" id="path-5" fill-rule="evenodd" style="fill:#ededed"/><path d="M18.924 33.106c5.641.0 19.11 4.82 23.763 7.32 1.289-4.564 3.433-8.764 6.212-12.455-2.216-2.404-13.159-4.32-15.794-4.32-9.888.0-18.736 4.357-24.802 11.228a32.985 32.985.0 0110.621-1.773z" id="path-6" class="cls-8" fill-rule="evenodd"/><path d="M137.104 23.651a32.923 32.923.0 00-15.636 3.924C116.99 11.685 102.421.015 85.104.015c-10.85.0-20.618 4.581-27.508 11.906a37.58 37.58.0 0113.327-2.452c17.317.0 31.885 11.672 36.364 27.562a32.896 32.896.0 0115.635-3.925c18.267.0 33.077 14.819 33.077 33.091.0 8.401-3.023 16.046-8.097 21.88 13.242-4.415 22.279-16.758 22.279-31.335.0-18.271-14.81-33.091-33.077-33.091z" id="path-7" class="cls-8" fill-rule="evenodd"/><path d="M122.899 92.622v81.726h14.181v-84.82c-4.256 1.966-9.034 3.094-14.181 3.094z" id="path-8" class="cls-8" fill-rule="evenodd"/><path d="M122.899 175.003v14.329c0 7.39-5.99 13.379-13.379 13.379H33.082v14.182H137.08v-41.89h-14.181z" id="path-9" fill-rule="evenodd" style="fill:#020403;opacity:.25"/></g></svg>

<svg xmlns="http://www.w3.org/2000/svg" xmlns:xlink="http://www.w3.org/1999/xlink" preserveAspectRatio="xMidYMid" width="170" height="217" viewBox="0 0 170 217"><defs><style>.cls-3{fill:#fff}.cls-4{fill:#ccc}.cls-7{fill:#ededed}.cls-8{fill:#020403;opacity:.35}.cls-11{fill:#020403;opacity:.25}</style></defs><g id="group-99svg"><path d="M137.104 23.651C131.444 23.651 126.121 25.074 121.468 27.575 116.99 11.685 102.421.015 85.104.015c-17.325.0-31.894 11.67-36.381 27.56-4.654-2.501-9.976-3.924-15.617-3.924C14.82 23.651.002 38.471.002 56.743c0 18.281 14.172 33.091 33.08 33.091V216.895s103.999.0 103.999.0.0-127.061.0-127.061c18.909.0 33.1-14.81 33.1-33.091.0-18.272-14.81-33.092-33.077-33.092z" id="path-1" class="cls-3" fill-rule="evenodd"/><path d="M61.445 182.691c-1.995.0-3.614-1.62-3.614-3.614V141.258C57.831 139.262 59.45 137.642 61.445 137.642c1.997.0 3.615 1.62 3.615 3.61600000000001v37.819c0 1.994-1.618 3.614-3.615 3.614z" id="path-2" class="cls-4" fill-rule="evenodd"/><path d="M85.082 182.691C83.086 182.691 81.468 181.071 81.468 179.077V131.803C81.468 129.806 83.086 128.188 85.082 128.188 87.078 128.188 88.696 129.806 88.696 131.803v47.274c0 1.994-1.618 3.614-3.614 3.614z" id="path-3" class="cls-4" fill-rule="evenodd"/><path d="M108.718 182.691C106.722 182.691 105.103 181.071 105.103 179.077V141.258C105.103 139.262 106.722 137.642 108.718 137.642 110.714 137.642 112.332 139.262 112.332 141.258v37.819c0 1.994-1.618 3.614-3.61399999999999 3.614z" id="path-4" class="cls-4" fill-rule="evenodd"/><path d="M137.081 216.895s-103.999.0-103.999.0.0-41.892.0-41.892 103.999.0 103.999.0.0 41.892.0 41.892z" id="path-5" class="cls-7" fill-rule="evenodd"/><path d="M18.924 33.106c5.641.0 19.11 4.82 23.763 7.32 1.289-4.564 3.433-8.764 6.212-12.455-2.216-2.404-13.159-4.32-15.794-4.32-9.888.0-18.736 4.357-24.802 11.228 3.338-1.132 6.901-1.773 10.621-1.773z" id="path-6" class="cls-8" fill-rule="evenodd"/><path d="M137.104 23.651C131.444 23.651 126.12 25.074 121.468 27.575 116.99 11.685 102.421.015 85.104.015c-10.85.0-20.618 4.581-27.508 11.906C61.743 10.353 66.225 9.469 70.923 9.469c17.317.0 31.885 11.672 36.364 27.562C111.939 34.528 117.262 33.106 122.922 33.106c18.267.0 33.077 14.819 33.077 33.091.0 8.401-3.023 16.046-8.09700000000001 21.88C161.144 83.662 170.181 71.319 170.181 56.742c0-18.271-14.81-33.091-33.077-33.091z" id="path-7" class="cls-8" fill-rule="evenodd"/><path d="M122.899 92.622s0 81.726.0 81.726 14.181.0 14.181.0.0-84.82.0-84.82C132.824 91.494 128.046 92.622 122.899 92.622z" id="path-8" class="cls-8" fill-rule="evenodd"/><path d="M122.899 175.003s0 14.329.0 14.329c0 7.39000000000002-5.99 13.379-13.379 13.379H33.082s0 14.182.0 14.182 103.998.0 103.998.0.0-41.89.0-41.89-14.181.0-14.181.0z" id="path-9" class="cls-11" fill-rule="evenodd"/></g></svg>
